X:234
T:Polka d'Olt
C:trad
A:Aveyron
O:France
M:2/4
L:1/8
Q:1/4=140
K:G
DG B/2c/2B/2A/2|Ge d2|Bd c/2B/2A/2G/2|1Ac BG:|2AF G2||
|:G F/2G/2 A/2D/2d/2D/2|c/2D/2B/2D/2 A/2D/2d/2D/2|
c/2D/2B/2D/2 A/2D/2c/2D/2|1B/2D/2A/2D/2 B/2D/2G/2D/2:|2B/2D/2A/2D/2 G2||
